svg/u1f38e.svg

<svg viewBox="0 0 128 128" xmlns="http://www.w3.org/2000/svg">
  <path d="M8.63,103.7c0,0,0,1.31,0,4.15c0,1.82,0.02,2.95,0.02,2.95l54.55-0.57l0.09-5.12L8.63,103.7z" fill="#C0B699"/>
  <polygon points="66.72,105.9 66.68,110.35 93.1,113.92 120.7,110.47 120.78,105.17 98.01,100.3 72.89,103.74 " fill="#C0B699"/>
  <path d="M8.71,117.68c-0.02,0.35-0.04,1.2,0.49,1.24c0.34,0.03,8.15,0,8.15,0l0.01-9.07 c0,0-7.58-0.02-7.93-0.01c-0.44,0.01-0.71,0.09-0.75,0.97C8.62,111.71,8.75,116.89,8.71,117.68z" fill="#DB0D2A"/>
  <polygon points="17.33,109.86 17.34,118.92 21.46,118.92 21.46,109.84 " fill="#044FAB"/>
  <rect height="9.02" fill="#FCDE97" width="10.4" x="21.44" y="109.85"/>
  <rect height="9.01" fill="#DB0D2A" width="9.44" x="31.84" y="109.84"/>
  <rect height="8.98" fill="#7CDA87" width="3.88" x="41.28" y="109.86"/>
  <rect height="8.96" fill="#FCDE96" width="9.32" x="45.14" y="109.86"/>
  <path d="M62.85,109.86h-8.42v8.93h7.99c0.43,0,0.77-0.35,0.77-0.77v-7.81 C63.2,110.02,63.04,109.86,62.85,109.86z" fill="#DB0D2A"/>
  <path d="M75.2,118.69v-8.61c0,0-7.99,0-8.17,0c-0.18,0-0.37-0.02-0.35,0.33c0.02,0.35,0,7.07,0,7.47 s0.22,0.77,1.03,0.79C68.52,118.69,75.2,118.69,75.2,118.69z" fill="#DB0D2A"/>
  <rect height="8.6" fill="#034DAD" width="3.79" x="75.2" y="110.09"/>
  <rect height="8.58" fill="#FCDE96" width="9.83" x="78.99" y="110.11"/>
  <rect height="8.61" fill="#DA0E28" width="9.79" x="88.8" y="110.08"/>
  <rect height="8.58" fill="#FF5117" width="4.18" x="98.59" y="110.11"/>
  <rect height="8.56" fill="#FCDE96" width="9.26" x="102.77" y="110.11"/>
  <path d="M120.37,110.11h-8.35v8.56h7.15c0.85,0,1.54-0.69,1.54-1.54v-6.68 C120.71,110.26,120.56,110.11,120.37,110.11z" fill="#DB0D2A"/>
  <path d="M82.26,23.15c-0.72,0.86-3.69,1.35-8.23,6.03c-3.39,3.49-7.31,9.57-7.09,17.3 c0.21,7.37,9.08,11.77,12.27,13.83c2.78,1.79,6.52,4.18,6.52,4.18l16.81-1.91c0,0,5.26-3.12,9.36-6.67 c3.69-3.19,5.14-4.76,5.39-9.86c0.28-5.81-2.42-12.56-8.3-17.8c-3.9-3.47-6.38-4.04-7.23-4.82c-0.85-0.78-0.14-7.65-9.5-7.87 C83.26,15.35,82.62,22.73,82.26,23.15z" fill="#2F2F2F"/>
  <path d="M32.94,90.63c0,0-14.87,13.61-13.2,13.81s4.94,1.01,8.37,1.46c2.94,0.39,6.55,0.5,6.55,0.5 s6.85-9.93,6.65-10.23C41.11,95.87,32.94,90.63,32.94,90.63z" fill="#0A1237"/>
  <path d="M45.04,106.71c0,0,1.61,0,2.92-0.05s2.72-0.5,2.72-0.5l-1.36-7.26l-7.61,1.56L45.04,106.71z" fill="#0A1237"/>
  <path d="M78.82,90.71l-4.98,14.21c0,0,4.49,2.04,18.87,2.29c12.99,0.22,21.24-3.1,21.24-3.1l-9.15-18.79 L78.82,90.71z" fill="#DB0D2A"/>
  <path d="M40.14,56.24c-7.27-0.13-14.54,2.51-19.64,12.03c-4.8,8.97-5.52,15.01-8.32,18.23 C7.39,92,2.89,91.61,1.91,96.41c-0.65,3.2,0.75,9.37,11.26,9.69c11.74,0.35,18.29-10.64,19-11.44c0.71-0.8,1.56-2.3,2.01-2.12 s0.47,13.87,0.47,13.87s2.1,0.85,5.29,0.85s5.09-0.54,5.09-0.54l0.31-5.22c0,0,1.64,2.61,5.33,4.66c2.44,1.36,9.18,3.23,12.49,0.65 c3.12-2.43,3.01-9.93,3.01-9.93l1.68-9.49c1.14,1.29,1.41,1.52-3.92-5.85c-4.08-5.64-6.12-14.35-12.21-20.66 C48.81,57.86,45.11,56.33,40.14,56.24z" fill="#172D86"/>
  <path d="M92.69,57.17c-3.72-0.11-10.19,0.44-15.51,7c-4.98,6.14-5.76,15.78-8.86,18.88 c-3.1,3.1-3.24,6.41-3.68,12.26c-0.29,3.8-0.91,9.85,1.55,11.32c2.17,1.29,5.95,0.64,10.65-2.91s9.17-12.35,9.17-12.35l13.71-0.15 c0,0,2.88,5.2,6.29,8.94c3.11,3.41,7.51,6.15,12.39,6.21c7.38,0.08,10.99-8.78,2.93-15.87c-3.36-2.95-5.82-7.11-7.18-10.02 c-3.28-7-3.45-10.92-6.74-15.34C101.99,57.88,95.7,57.25,92.69,57.17z" fill="#FF4F1C"/>
  <path d="M29.61,58.98c0,0-0.09,7.32,0.35,7.49c0.44,0.18,19.4,0.29,19.69,0c0.29-0.29,0.35-8.29,0.35-8.29 L29.61,58.98z" fill="#091238"/>
  <path d="M47.34,81.43c1.86-1.94,3.33-4.28,4.48-4.59c1.37-0.37,1.83,0.86,1.49,2.09 c-0.34,1.23-1.54,3.4-4.83,4.58c-2.61,0.94-5.21,1.22-5.21,1.22S45.65,83.2,47.34,81.43z" fill="#091238"/>
  <path d="M30.07,74.98c-0.07,0.11-4.59,3.12-7,4.28c-2.01,0.97-4.14-0.04-5.51,1.53 c-0.87,0.99-1.23,3.61,1.08,3.02c2.31-0.6,5.07-2.76,7.04-3.99c1.97-1.23,3.57-1.72,3.57-1.72L30.07,74.98z" fill="#091238"/>
  <path d="M27.34,87.51c0,0-1.91,3.24-6.63,5.72C13,97.28,5.82,93.84,4.87,97.41 c-0.63,2.34,2.89,5.94,8.97,5.55s9.14-2.94,12.15-6.32c1.83-2.04,3.93-6.59,4.61-9.45c0.32-1.36,1.19-3.81,1.19-3.81L27.34,87.51z" fill="#DB0D2A"/>
  <path d="M42.75,90.81c0,0,1.11,5.8,4.73,9.18c3.47,3.24,6.71,4.49,10.88,4.41s4.81-2.66,4.45-4.25 c-0.36-1.59-2.07-2.98-5.2-3.5c-3.14-0.52-5.52-1.51-7.63-2.78s-4.45-3.26-4.45-3.26L42.75,90.81z" fill="#DB0D2A"/>
  <polygon points="29.24,78.12 29.24,65.27 34.17,65.27 34.17,79.42 " fill="#F9DF96"/>
  <path d="M27.34,87.51c0,0,1.4-2.4,1.66-5.06c0.26-2.67,0.24-4.33,0.24-4.33s3.51-0.95,5.41,0.65 c1.53,1.28,1.26,4.85-1.43,6.79C30.54,87.51,27.34,87.51,27.34,87.51z" fill="#D9CBC7"/>
  <path d="M46.2,91.14c0,0-1.1-0.73-2.46-3.06c-1.06-1.83-0.48-3.33-0.48-3.33s-3.72,0-5.84,1.51 c-2.14,1.53-2.32,3.22-1.8,4.17c0.77,1.41,3.02,1.49,5.57,1.33C43.73,91.59,46.2,91.14,46.2,91.14z" fill="#D9CBC7"/>
  <path d="M85.39,58.2l-0.75,0.29c0,0,6.98,7.51,7.67,7.46c0.69-0.05,7.23-7.32,7.23-7.32l-1.27-0.57 l-6.65-1.01L85.39,58.2z" fill="#D8CDC7"/>
  <path d="M102.15,60.06c0,0-3.45,3.32-3.11,9.24s3.32,11.89,3.32,11.89s1.9,2.37,5.54,3.45 c3.41,1.01,5.78,0.48,4.52-1.62c-1.11-1.85-4.52-0.78-7.41-2.43c-2-1.15-1.82-10.34-1.82-10.34s0.33-2.88,1.16-4.59 c0.83-1.71,1.51-2.4,1.51-2.4s-1.14-1.21-1.79-1.77C103.23,60.76,102.15,60.06,102.15,60.06z" fill="#DB0D2A"/>
  <path d="M82.39,59.61c0,0,1.92,1.31,2.95,5.16c1.2,4.51,0.58,6.72,0.58,6.72l-3.9,8.92 c0,0-2.69,2.73-5.38,4.26s-3.68,1.39-4.3,0.49c-0.63-0.9-0.09-2.55,2.73-3.27c2.82-0.72,4.48-1.75,5.42-2.69 c0.94-0.94,1.48-8.38,1.48-8.38s-0.05-3.05-1.03-5.42c-0.86-2.08-2.02-3.15-2.02-3.15s0.98-0.94,1.73-1.49 C81.34,60.25,82.39,59.61,82.39,59.61z" fill="#DB0D2A"/>
  <path d="M85.54,84.73c-0.74-0.37-7.22,5.63-10.88,7.96c-2.57,1.64-4.94,2.44-6.69,5.1 c-1.23,1.86-1.38,5.52,1.17,5.73c2.71,0.23,5.58-2.08,9.5-6.53C82.62,92.48,86.38,85.15,85.54,84.73z" fill="#7ED989"/>
  <path d="M99.93,85.05c-0.26,0.41,4.51,9.08,8.92,13.27c3.79,3.6,7.91,5.63,11.57,4.94 c3.66-0.69,3.61-6.21-0.42-8.81s-9.08-4.35-11.73-5.57C106.36,87.99,100.3,84.46,99.93,85.05z" fill="#7ED989"/>
  <path d="M92.71,88.02c0.8,0,16.4-10.14,16.61-10.83c0.21-0.69-5.15-10.56-16.67-10.3 c-11.25,0.26-16.03,9.5-16.03,9.98S91.91,88.02,92.71,88.02z" fill="#F9DF96"/>
  <path d="M83.99,30.8c0,0-5.38,4.72-5.28,14.22c0.09,8.24,5.35,15.37,13.34,15.44 c7.99,0.07,13.64-6.23,13.61-15.37c-0.04-9.96-5.71-13.91-5.71-13.91s-3.47,1.81-7.83,1.76S83.99,30.8,83.99,30.8z" fill="#F2EDEC"/>
  <path d="M96.81,19.92c0,0,1.25,1.51,1.29,4.16c0.04,2.76-2.28,5.59-6.18,5.48c-3.9-0.11-6.11-2.87-6.11-5.59 c0-2.88,1.43-4.05,1.43-4.05s-1.84-2.1-2.39-4.01s-0.13-3.29,0.88-3.94c1.95-1.25,3.68,1.55,3.68,1.55S89.37,9.47,92.1,9.4 c2.87-0.07,2.65,4.16,2.65,4.16s2.06-2.83,4.01-1.62c1.23,0.77,0.96,3.04,0.29,4.64C98.24,18.53,96.81,19.92,96.81,19.92z" fill="#FBC21F"/>
  <path d="M23.98,39.55c0,0-4.28-0.23-4.09,5.24c0.17,4.95,4.9,5.13,4.9,5.13L23.98,39.55z" fill="#D7CCC7"/>
  <path d="M53.93,40.19c0,0,4.26-0.75,4.26,4.44c0,5.3-4.61,5.59-4.61,5.59l-0.52-5.99L53.93,40.19z" fill="#D7CCC7"/>
  <path d="M30.49,15.42v5.36l-8.35,0.17v3.34c0,0,6.11-0.28,16.42-0.23c11.69,0.06,16.93,0,16.93,0l0.06-3.34 l-7.03,0.06l-0.06-5.36H30.49z" fill="#868686"/>
  <path d="M39.79,63.17c11.19-0.05,14.53-8.54,14.88-16.19c0.36-7.88,0.22-14,0.22-15.83 c0-3.21-1.75-5.91-4.3-6.71c-2.55-0.8-4.81-0.73-4.81-0.73s0.29-7.07-0.07-9.48c-0.36-2.41-1.44-5.51-6.44-5.47 c-4.96,0.04-6.32,3.79-6.39,5.98c-0.06,1.76,0.07,8.97,0.07,8.97s-3.82-0.22-6.14,0.94c-1.86,0.93-3.57,2.87-3.66,6.72 c-0.08,3.28-0.19,13.95,0.54,18.09C24.35,53.31,27.68,63.23,39.79,63.17z" fill="#2F2F2F"/>
  <path d="M28.93,34.54h20.44c0,0-0.18,2.29,0.62,3.9c0.96,1.92,2.03,2.71,2.03,2.71s1.07,7.4-1.36,13.05 c-1.61,3.75-5.25,6.81-11.33,6.82c-5.64,0.01-9.71-3.46-11.6-6.99c-2.75-5.14-1.98-11.75-1.98-11.75s1.64-1.13,2.48-3.56 S28.93,34.54,28.93,34.54z" fill="#F2EDEC"/>
  <path d="M46.31,42.59c-1.44,0.04-3.19-0.98-3.94,0.18c-0.87,1.37,0.76,3.44,3.97,3.44s5.15-2.37,3.94-3.63 C49.07,41.33,47.71,42.55,46.31,42.59z" fill="#2F2F2F"/>
  <path d="M32.12,42.52c-1.19,0-3.14-1.41-4.11,0c-0.81,1.19,0.55,3.77,4.03,3.66c3.48-0.11,5.1-1.96,4.22-3.37 C35.34,41.33,33.53,42.52,32.12,42.52z" fill="#2F2F2F"/>
  <path d="M39.25,50.89c-3.16-0.04-4.17,0.39-4.24,1.14c-0.11,1.33,1.15,2.69,4.06,2.71 c3.54,0.02,4.36-1.64,4.31-2.64C43.35,51.19,42.59,50.93,39.25,50.89z" fill="#DB0D2A"/>
  <path d="M46.97,37.33c0.03,1.01-1.04,1.89-2.55,1.8c-1.33-0.08-1.95-1.32-1.26-2.21s1.85-0.92,2.43-0.82 C46.28,36.23,46.95,36.64,46.97,37.33z" fill="#848485"/>
  <path d="M31.66,37.71c-0.06,0.82,1.13,1.39,2.3,1.42s2.3-0.63,2.27-1.45c-0.03-0.82-1.07-1.39-2.14-1.39 C33.02,36.29,31.73,36.86,31.66,37.71z" fill="#848485"/>
  <path d="M99.38,42c-1.44,0.04-3.2-0.79-3.94,0.37c-0.87,1.37,0.76,3.37,3.97,3.44 c3.36,0.08,5.15-2.37,3.94-3.63S100.78,41.96,99.38,42z" fill="#2F2F2F"/>
  <path d="M85.2,41.93c-1.19,0-3.09-1.15-4.05,0.26c-0.81,1.19,0.55,3.62,4.03,3.66 c3.52,0.04,5.1-1.96,4.22-3.37C88.48,41,86.61,41.93,85.2,41.93z" fill="#2F2F2F"/>
  <path d="M92.2,50.43c-3-0.04-3.75,0.43-3.93,1.25c-0.28,1.31,1.05,2.66,3.96,2.68 c3.54,0.02,4.27-1.61,3.96-2.68C95.95,50.82,95.54,50.46,92.2,50.43z" fill="#DB0D2A"/>
  <path d="M99.89,36.53c0.03,1.01-1.04,1.89-2.55,1.8c-1.33-0.08-1.95-1.32-1.26-2.21s1.85-0.92,2.43-0.82 C99.2,35.43,99.87,35.84,99.89,36.53z" fill="#848485"/>
  <path d="M84.45,36.53c-0.11,0.88,0.97,1.66,2.13,1.76c1.16,0.1,2.33-0.56,2.35-1.45 c0.02-0.89-0.99-1.56-2.06-1.62S84.57,35.62,84.45,36.53z" fill="#848485"/>
</svg>

<svg viewBox="0 0 128 128" xmlns="http://www.w3.org/2000/svg">
  <defs/>
  <path d="M8.63,103.7 C8.63,103.7 8.63,105.01 8.63,107.85 C8.63,109.67 8.65,110.8 8.65,110.8 L63.2,110.23 L63.29,105.11 L8.63,103.7 Z" fill="#C0B699"/>
  <path d="M66.72,105.9 L66.68,110.35 L93.1,113.92 L120.7,110.47 L120.78,105.17 L98.01,100.3 L72.89,103.74 Z" fill="#C0B699"/>
  <path d="M8.71,117.68 C8.69,118.03 8.67,118.88 9.2,118.92 C9.54,118.95 17.35,118.92 17.35,118.92 L17.36,109.85 C17.36,109.85 9.78,109.83 9.43,109.84 C8.99,109.85 8.72,109.93 8.68,110.81 C8.62,111.71 8.75,116.89 8.71,117.68 Z" fill="#DB0D2A"/>
  <path d="M17.33,109.86 L17.34,118.92 L21.46,118.92 L21.46,109.84 Z" fill="#044FAB"/>
  <path d="M21.44,109.85 L31.84,109.85 L31.84,118.87 L21.44,118.87 L21.44,109.85 Z" fill="#FCDE97"/>
  <path d="M31.84,109.84 L41.28,109.84 L41.28,118.85 L31.84,118.85 L31.84,109.84 Z" fill="#DB0D2A"/>
  <path d="M41.28,109.86 L45.16,109.86 L45.16,118.84 L41.28,118.84 L41.28,109.86 Z" fill="#7CDA87"/>
  <path d="M45.14,109.86 L54.46,109.86 L54.46,118.82 L45.14,118.82 L45.14,109.86 Z" fill="#FCDE96"/>
  <path d="M62.85,109.86 L54.43,109.86 L54.43,118.79 L62.42,118.79 C62.85,118.79 63.19,118.44 63.19,118.02 L63.19,110.21 C63.2,110.02 63.04,109.86 62.85,109.86 Z" fill="#DB0D2A"/>
  <path d="M75.2,118.69 L75.2,110.08 C75.2,110.08 67.21,110.08 67.03,110.08 C66.85,110.08 66.66,110.06 66.68,110.41 C66.7,110.76 66.68,117.48 66.68,117.88 C66.68,118.28 66.9,118.65 67.71,118.67 C68.52,118.69 75.2,118.69 75.2,118.69 Z" fill="#DB0D2A"/>
  <path d="M75.2,110.09 L78.99,110.09 L78.99,118.69 L75.2,118.69 L75.2,110.09 Z" fill="#034DAD"/>
  <path d="M78.99,110.11 L88.82,110.11 L88.82,118.69 L78.99,118.69 L78.99,110.11 Z" fill="#FCDE96"/>
  <path d="M88.8,110.08 L98.59,110.08 L98.59,118.69 L88.8,118.69 L88.8,110.08 Z" fill="#DA0E28"/>
  <path d="M98.59,110.11 L102.77,110.11 L102.77,118.69 L98.59,118.69 L98.59,110.11 Z" fill="#FF5117"/>
  <path d="M102.77,110.11 L112.03,110.11 L112.03,118.67 L102.77,118.67 L102.77,110.11 Z" fill="#FCDE96"/>
  <path d="M120.37,110.11 L112.02,110.11 L112.02,118.67 L119.17,118.67 C120.02,118.67 120.71,117.98 120.71,117.13 L120.71,110.45 C120.71,110.26 120.56,110.11 120.37,110.11 Z" fill="#DB0D2A"/>
  <path d="M82.26,23.15 C81.54,24.01 78.57,24.5 74.03,29.18 C70.64,32.67 66.72,38.75 66.94,46.48 C67.15,53.85 76.02,58.25 79.21,60.31 C81.99,62.1 85.73,64.49 85.73,64.49 L102.54,62.58 C102.54,62.58 107.8,59.46 111.9,55.91 C115.59,52.72 117.04,51.15 117.29,46.05 C117.57,40.24 114.87,33.49 108.99,28.25 C105.09,24.78 102.61,24.21 101.76,23.43 C100.91,22.65 101.62,15.78 92.26,15.56 C83.26,15.35 82.62,22.73 82.26,23.15 Z" fill="#2F2F2F"/>
  <path d="M32.94,90.63 C32.94,90.63 18.07,104.24 19.74,104.44 C21.41,104.64 24.68,105.45 28.11,105.9 C31.05,106.29 34.66,106.4 34.66,106.4 C34.66,106.4 41.51,96.47 41.31,96.17 C41.11,95.87 32.94,90.63 32.94,90.63 Z" fill="#0A1237"/>
  <path d="M45.04,106.71 C45.04,106.71 46.65,106.71 47.96,106.66 C49.27,106.61 50.68,106.16 50.68,106.16 L49.32,98.9 L41.71,100.46 L45.04,106.71 Z" fill="#0A1237"/>
  <path d="M78.82,90.71 L73.84,104.92 C73.84,104.92 78.33,106.96 92.71,107.21 C105.7,107.43 113.95,104.11 113.95,104.11 L104.8,85.32 L78.82,90.71 Z" fill="#DB0D2A"/>
  <path d="M40.14,56.24 C32.87,56.11 25.6,58.75 20.5,68.27 C15.7,77.24 14.98,83.28 12.18,86.5 C7.39,92 2.89,91.61 1.91,96.41 C1.26,99.61 2.66,105.78 13.17,106.1 C24.91,106.45 31.46,95.46 32.17,94.66 C32.88,93.86 33.73,92.36 34.18,92.54 C34.63,92.72 34.65,106.41 34.65,106.41 C34.65,106.41 36.75,107.26 39.94,107.26 C43.13,107.26 45.03,106.72 45.03,106.72 L45.34,101.5 C45.34,101.5 46.98,104.11 50.67,106.16 C53.11,107.52 59.85,109.39 63.16,106.81 C66.28,104.38 66.17,96.88 66.17,96.88 L67.85,87.39 C68.99,88.68 69.26,88.91 63.93,81.54 C59.85,75.9 57.81,67.19 51.72,60.88 C48.81,57.86 45.11,56.33 40.14,56.24 Z" fill="#172D86"/>
  <path d="M92.69,57.17 C88.97,57.06 82.5,57.61 77.18,64.17 C72.2,70.31 71.42,79.95 68.32,83.05 C65.22,86.15 65.08,89.46 64.64,95.31 C64.35,99.11 63.73,105.16 66.19,106.63 C68.36,107.92 72.14,107.27 76.84,103.72 C81.54,100.17 86.01,91.37 86.01,91.37 L99.72,91.22 C99.72,91.22 102.6,96.42 106.01,100.16 C109.12,103.57 113.52,106.31 118.4,106.37 C125.78,106.45 129.39,97.59 121.33,90.5 C117.97,87.55 115.51,83.39 114.15,80.48 C110.87,73.48 110.7,69.56 107.41,65.14 C101.99,57.88 95.7,57.25 92.69,57.17 Z" fill="#FF4F1C"/>
  <path d="M29.61,58.98 C29.61,58.98 29.52,66.3 29.96,66.47 C30.4,66.65 49.36,66.76 49.65,66.47 C49.94,66.18 50,58.18 50,58.18 L29.61,58.98 Z" fill="#091238"/>
  <path d="M47.34,81.43 C49.2,79.49 50.67,77.15 51.82,76.84 C53.19,76.47 53.65,77.7 53.31,78.93 C52.97,80.16 51.77,82.33 48.48,83.51 C45.87,84.45 43.27,84.73 43.27,84.73 C43.27,84.73 45.65,83.2 47.34,81.43 Z" fill="#091238"/>
  <path d="M30.07,74.98 C30,75.09 25.48,78.1 23.07,79.26 C21.06,80.23 18.93,79.22 17.56,80.79 C16.69,81.78 16.33,84.4 18.64,83.81 C20.95,83.21 23.71,81.05 25.68,79.82 C27.65,78.59 29.25,78.1 29.25,78.1 L30.07,74.98 Z" fill="#091238"/>
  <path d="M27.34,87.51 C27.34,87.51 25.43,90.75 20.71,93.23 C13,97.28 5.82,93.84 4.87,97.41 C4.24,99.75 7.76,103.35 13.84,102.96 C19.92,102.57 22.98,100.02 25.99,96.64 C27.82,94.6 29.92,90.05 30.6,87.19 C30.92,85.83 31.79,83.38 31.79,83.38 L27.34,87.51 Z" fill="#DB0D2A"/>
  <path d="M42.75,90.81 C42.75,90.81 43.86,96.61 47.48,99.99 C50.95,103.23 54.19,104.48 58.36,104.4 C62.53,104.32 63.17,101.74 62.81,100.15 C62.45,98.56 60.74,97.17 57.61,96.65 C54.47,96.13 52.09,95.14 49.98,93.87 C47.87,92.6 45.53,90.61 45.53,90.61 L42.75,90.81 Z" fill="#DB0D2A"/>
  <path d="M29.24,78.12 L29.24,65.27 L34.17,65.27 L34.17,79.42 Z" fill="#F9DF96"/>
  <path d="M27.34,87.51 C27.34,87.51 28.74,85.11 29,82.45 C29.26,79.78 29.24,78.12 29.24,78.12 C29.24,78.12 32.75,77.17 34.65,78.77 C36.18,80.05 35.91,83.62 33.22,85.56 C30.54,87.51 27.34,87.51 27.34,87.51 Z" fill="#D9CBC7"/>
  <path d="M46.2,91.14 C46.2,91.14 45.1,90.41 43.74,88.08 C42.68,86.25 43.26,84.75 43.26,84.75 C43.26,84.75 39.54,84.75 37.42,86.26 C35.28,87.79 35.1,89.48 35.62,90.43 C36.39,91.84 38.64,91.92 41.19,91.76 C43.73,91.59 46.2,91.14 46.2,91.14 Z" fill="#D9CBC7"/>
  <path d="M85.39,58.2 L84.64,58.49 C84.64,58.49 91.62,66 92.31,65.95 C93,65.9 99.54,58.63 99.54,58.63 L98.27,58.06 L91.62,57.05 L85.39,58.2 Z" fill="#D8CDC7"/>
  <path d="M102.15,60.06 C102.15,60.06 98.7,63.38 99.04,69.3 C99.38,75.22 102.36,81.19 102.36,81.19 C102.36,81.19 104.26,83.56 107.9,84.64 C111.31,85.65 113.68,85.12 112.42,83.02 C111.31,81.17 107.9,82.24 105.01,80.59 C103.01,79.44 103.19,70.25 103.19,70.25 C103.19,70.25 103.52,67.37 104.35,65.66 C105.18,63.95 105.86,63.26 105.86,63.26 C105.86,63.26 104.72,62.05 104.07,61.49 C103.23,60.76 102.15,60.06 102.15,60.06 Z" fill="#DB0D2A"/>
  <path d="M82.39,59.61 C82.39,59.61 84.31,60.92 85.34,64.77 C86.54,69.28 85.92,71.49 85.92,71.49 L82.02,80.41 C82.02,80.41 79.33,83.14 76.64,84.67 C73.95,86.2 72.96,86.06 72.34,85.16 C71.71,84.26 72.25,82.61 75.07,81.89 C77.89,81.17 79.55,80.14 80.49,79.2 C81.43,78.26 81.97,70.82 81.97,70.82 C81.97,70.82 81.92,67.77 80.94,65.4 C80.08,63.32 78.92,62.25 78.92,62.25 C78.92,62.25 79.9,61.31 80.65,60.76 C81.34,60.25 82.39,59.61 82.39,59.61 Z" fill="#DB0D2A"/>
  <path d="M85.54,84.73 C84.8,84.36 78.32,90.36 74.66,92.69 C72.09,94.33 69.72,95.13 67.97,97.79 C66.74,99.65 66.59,103.31 69.14,103.52 C71.85,103.75 74.72,101.44 78.64,96.99 C82.62,92.48 86.38,85.15 85.54,84.73 Z" fill="#7ED989"/>
  <path d="M99.93,85.05 C99.67,85.46 104.44,94.13 108.85,98.32 C112.64,101.92 116.76,103.95 120.42,103.26 C124.08,102.57 124.03,97.05 120,94.45 C115.97,91.85 110.92,90.1 108.27,88.88 C106.36,87.99 100.3,84.46 99.93,85.05 Z" fill="#7ED989"/>
  <path d="M92.71,88.02 C93.51,88.02 109.11,77.88 109.32,77.19 C109.53,76.5 104.17,66.63 92.65,66.89 C81.4,67.15 76.62,76.39 76.62,76.87 C76.62,77.35 91.91,88.02 92.71,88.02 Z" fill="#F9DF96"/>
  <path d="M83.99,30.8 C83.99,30.8 78.61,35.52 78.71,45.02 C78.8,53.26 84.06,60.39 92.05,60.46 C100.04,60.53 105.69,54.23 105.66,45.09 C105.62,35.13 99.95,31.18 99.95,31.18 C99.95,31.18 96.48,32.99 92.12,32.94 C87.76,32.89 83.99,30.8 83.99,30.8 Z" fill="#F2EDEC"/>
  <path d="M96.81,19.92 C96.81,19.92 98.06,21.43 98.1,24.08 C98.14,26.84 95.82,29.67 91.92,29.56 C88.02,29.45 85.81,26.69 85.81,23.97 C85.81,21.09 87.24,19.92 87.24,19.92 C87.24,19.92 85.4,17.82 84.85,15.91 C84.3,14 84.72,12.62 85.73,11.97 C87.68,10.72 89.41,13.52 89.41,13.52 C89.41,13.52 89.37,9.47 92.1,9.4 C94.97,9.33 94.75,13.56 94.75,13.56 C94.75,13.56 96.81,10.73 98.76,11.94 C99.99,12.71 99.72,14.98 99.05,16.58 C98.24,18.53 96.81,19.92 96.81,19.92 Z" fill="#FBC21F"/>
  <path d="M23.98,39.55 C23.98,39.55 19.7,39.32 19.89,44.79 C20.06,49.74 24.79,49.92 24.79,49.92 L23.98,39.55 Z" fill="#D7CCC7"/>
  <path d="M53.93,40.19 C53.93,40.19 58.19,39.44 58.19,44.63 C58.19,49.93 53.58,50.22 53.58,50.22 L53.06,44.23 L53.93,40.19 Z" fill="#D7CCC7"/>
  <path d="M30.49,15.42 L30.49,20.78 L22.14,20.95 L22.14,24.29 C22.14,24.29 28.25,24.01 38.56,24.06 C50.25,24.12 55.49,24.06 55.49,24.06 L55.55,20.72 L48.52,20.78 L48.46,15.42 L30.49,15.42 Z" fill="#868686"/>
  <path d="M39.79,63.17 C50.98,63.12 54.32,54.63 54.67,46.98 C55.03,39.1 54.89,32.98 54.89,31.15 C54.89,27.94 53.14,25.24 50.59,24.44 C48.04,23.64 45.78,23.71 45.78,23.71 C45.78,23.71 46.07,16.64 45.71,14.23 C45.35,11.82 44.27,8.72 39.27,8.76 C34.31,8.8 32.95,12.55 32.88,14.74 C32.82,16.5 32.95,23.71 32.95,23.71 C32.95,23.71 29.13,23.49 26.81,24.65 C24.95,25.58 23.24,27.52 23.15,31.37 C23.07,34.65 22.96,45.32 23.69,49.46 C24.35,53.31 27.68,63.23 39.79,63.17 Z" fill="#2F2F2F"/>
  <path d="M28.93,34.54 L49.37,34.54 C49.37,34.54 49.19,36.83 49.99,38.44 C50.95,40.36 52.02,41.15 52.02,41.15 C52.02,41.15 53.09,48.55 50.66,54.2 C49.05,57.95 45.41,61.01 39.33,61.02 C33.69,61.03 29.62,57.56 27.73,54.03 C24.98,48.89 25.75,42.28 25.75,42.28 C25.75,42.28 27.39,41.15 28.23,38.72 C29.07,36.29 28.93,34.54 28.93,34.54 Z" fill="#F2EDEC"/>
  <path d="M46.31,42.59 C44.87,42.63 43.12,41.61 42.37,42.77 C41.5,44.14 43.13,46.21 46.34,46.21 C49.55,46.21 51.49,43.84 50.28,42.58 C49.07,41.33 47.71,42.55 46.31,42.59 Z" fill="#2F2F2F"/>
  <path d="M32.12,42.52 C30.93,42.52 28.98,41.11 28.01,42.52 C27.2,43.71 28.56,46.29 32.04,46.18 C35.52,46.07 37.14,44.22 36.26,42.81 C35.34,41.33 33.53,42.52 32.12,42.52 Z" fill="#2F2F2F"/>
  <path d="M39.25,50.89 C36.09,50.85 35.08,51.28 35.01,52.03 C34.9,53.36 36.16,54.72 39.07,54.74 C42.61,54.76 43.43,53.1 43.38,52.1 C43.35,51.19 42.59,50.93 39.25,50.89 Z" fill="#DB0D2A"/>
  <path d="M46.97,37.33 C47,38.34 45.93,39.22 44.42,39.13 C43.09,39.05 42.47,37.81 43.16,36.92 C43.85,36.03 45.01,36 45.59,36.1 C46.28,36.23 46.95,36.64 46.97,37.33 Z" fill="#848485"/>
  <path d="M31.66,37.71 C31.6,38.53 32.79,39.1 33.96,39.13 C35.13,39.16 36.26,38.5 36.23,37.68 C36.2,36.86 35.16,36.29 34.09,36.29 C33.02,36.29 31.73,36.86 31.66,37.71 Z" fill="#848485"/>
  <path d="M99.38,42 C97.94,42.04 96.18,41.21 95.44,42.37 C94.57,43.74 96.2,45.74 99.41,45.81 C102.77,45.89 104.56,43.44 103.35,42.18 C102.14,40.92 100.78,41.96 99.38,42 Z" fill="#2F2F2F"/>
  <path d="M85.2,41.93 C84.01,41.93 82.11,40.78 81.15,42.19 C80.34,43.38 81.7,45.81 85.18,45.85 C88.7,45.89 90.28,43.89 89.4,42.48 C88.48,41 86.61,41.93 85.2,41.93 Z" fill="#2F2F2F"/>
  <path d="M92.2,50.43 C89.2,50.39 88.45,50.86 88.27,51.68 C87.99,52.99 89.32,54.34 92.23,54.36 C95.77,54.38 96.5,52.75 96.19,51.68 C95.95,50.82 95.54,50.46 92.2,50.43 Z" fill="#DB0D2A"/>
  <path d="M99.89,36.53 C99.92,37.54 98.85,38.42 97.34,38.33 C96.01,38.25 95.39,37.01 96.08,36.12 C96.77,35.23 97.93,35.2 98.51,35.3 C99.2,35.43 99.87,35.84 99.89,36.53 Z" fill="#848485"/>
  <path d="M84.45,36.53 C84.34,37.41 85.42,38.19 86.58,38.29 C87.74,38.39 88.91,37.73 88.93,36.84 C88.95,35.95 87.94,35.28 86.87,35.22 C85.8,35.16 84.57,35.62 84.45,36.53 Z" fill="#848485"/>
</svg>
